!!!!SEGMENT: pl-sa--22-a-i-22--007_haydn-joseph--requiem-lux-aeterna.krn
!!!cenid: 18xx:357
!!!COM: Haydn, Joseph
!!!COM-rismid: pe55803
!!!CDT: 1732/03/31-1809/05/31
!!!CNT: Austrian
!!!OPR: Requiem
!!!OTL: Lux aeterna
!!!OMV: 007
!!!PDT: 1814
!!!AGN: Sacred; Requiem
!!!SMS-siglum: PL-SA
!!!SMS-shelfmark: 22/A I 22
!!!SMS-shelfwork: 001-007 M
!!!SMS-variant: Organo: PL-SA 22/A I 22: 19
!!!SMS-altvar: Organo: PL_SA 22/A I 22: 23
!!!NIFC-rismid: 1001036473
!!!URL-scan: http://bc.bdsandomierz.pl/dlibra/publication/1255/edition/1223/content
!!!ONB-nifc: UWAGA: części Requiem: Requiem, Dies irae, Offertorium, Sanctus, Benedictus, Agnus, Lux aeterna
!!!AIN: 1 alto 1 empty 1 organ 1 tenor 2 violn 1 vox
!!!key:
**kern	**fba	**dynam	**kern	**kern	**dynam	**kern	**text	**kern	**text	**kern	**text	**kern	**text
*part7	*	*part7	*part6	*part5	*part5	*part4	*part4	*part3	*part3	*part2	*part2	*part1	*part1
*	*	*	*group2	*group2	*	*group1	*	*group1	*	*group1	*	*group1	*
*staff7	*	*	*staff6	*staff5	*	*staff4	*staff4	*staff3	*staff3	*staff2	*staff2	*staff1	*staff1
*Iorgan	*	*	*Ivioln	*Ivioln	*	*Iempty	*	*Itenor	*	*Ialto	*	*Ivox	*
*I"Organo.	*	*	*I"Violino Secundo_	*I"Violino Primo	*	*I"Baſso.	*	*I"Tenore=	*	*I"Alto=	*	*I"Canto:	*
*I'org	*	*	*I'vl 2	*I'vl 1	*	*I'B	*	*I'T	*	*I'A	*	*I'C	*
*clefF4	*	*	*clefG2	*clefG2	*	*clefF4	*	*clefC4	*	*clefC3	*	*clefC1	*
*k[e-a-b-d-]	*	*	*k[b-e-a-d-]	*k[b-e-a-d-]	*	*k[e-a-b-d-]	*	*k[e-a-d-b-]	*	*k[e-a-d-b-]	*	*k[b-e-d-a-]	*
*A-:	*	*	*A-:	*A-:	*	*A-:	*	*A-:	*	*A-:	*	*A-:	*
*M3/4	*	*	*M3/4	*M3/4	*	*M3/4	*	*M3/4	*	*M3/4	*	*M3/4	*
=1	=1	=1	=1	=1	=1	=1	=1	=1	=1	=1	=1	=1	=1
*	*	*	*	*	*	*	*	*2\right	*	*2\right	*	*2\right	*
!LO:TX:a:t=P:problem=bemol A-	!	!	!	!	!	!	!	!	!	!	!	!	!
!LO:TX:b:i:t=Lux aeterna	!	!	!	!LO:TX:a:i:t=Tarde pianiſsimo	!	!LO:TX:a:t=P:problem=bemol A-	!	!	!	!	!	!LO:TX:a:t=P:problem=bemol dd-	!
!LO:TX:a:t=Solo.	!	!LO:DY:a:t=piano	!	!LO:TX:a:i:t=Lux Eterna	!LO:DY:a	!LO:TX:a:t=Tarde	!	!LO:TX:a:t=Tarde	!	!LO:TX:a:t=Tarde	!	!LO:TX:a:t=Tarde=	!
4AA-/	.	p	8A-'/L	(8c/L	.	2AA-/	Lux	2A-\	Lux	2e-\	Lux	2cc\	Lux
.	.	.	8c'/J	8e-/)	.	.	.	.	.	.	.	.	.
*	*	*	*tremolo	*	*	*	*	*	*	*	*	*	*
!	!	!	!LO:TX:b:t=....	!	!	!	!	!	!	!	!	!	!
4r	.	.	8c/L	8e-/|	.	.	.	.	.	.	.	.	.
.	.	.	8c/	8e-/|	.	.	.	.	.	.	.	.	.
4r	.	.	8c/	8e-/|	.	4AA-/	ae-	4A-\	ae-	4f\	ae-	4cc\	ae-
.	.	.	8c/J	8e-/J|	.	.	.	.	.	.	.	.	.
=2	=2	=2	=2	=2	=2	=2	=2	=2	=2	=2	=2	=2	=2
4GG/	9 5	.	8G/L	(8B-/L	.	2GG/	-ter-	2B-\	-ter-	2e-\	-ter-	2dd-X\	-ter-
.	.	.	8d-X/J	8e-/)	.	.	.	.	.	.	.	.	.
4r	.	.	8d-/L	8e-/|	.	.	.	.	.	.	.	.	.
.	.	.	8d-/	8e-/|	.	.	.	.	.	.	.	.	.
4r	.	.	8d-/	8e-/|	.	4GG/	-na	4B-\	-na	4e-\	-na	4dd-\	-na
.	.	.	8d-/J	8e-/J|	.	.	.	.	.	.	.	.	.
=3	=3	=3	=3	=3	=3	=3	=3	=3	=3	=3	=3	=3	=3
4GG/	9 5	.	8G/L	(8B-/L	.	4GG/	lu-	4A-X\	lu-	4e-\	lu-	4.dd-\	lu-
.	.	.	8d-X/J	8e-/)	.	.	.	.	.	.	.	.	.
4r	.	.	8d-/L	8e-/|	.	4GG/	-ce-	4B-\	-ce-	4e-\	-ce-	.	.
.	.	.	8d-/	8e-/|	.	.	.	.	.	.	.	8dd-\	-ce-
4r	.	.	8d-/	8e-/|	.	4GG/	-at	4B-\	-at	4e-\	-at	4dd-\	-at
.	.	.	8d-/J	8e-/J|	.	.	.	.	.	.	.	.	.
=4	=4	=4	=4	=4	=4	=4	=4	=4	=4	=4	=4	=4	=4
4AA-/	3_	.	8A-/L	(8c/L	.	4AA-/	e-	4A-\	e-	4e-\	e-	4cc\	e-
.	.	.	8c/J	8e-/)	.	.	.	.	.	.	.	.	.
4AA-/	.	.	8c/L	8e-/|	.	4AA-/	-is	4A-\	-is	4e-\	-is	4cc\	-is
.	X	.	8c/	8e-/|	.	.	.	.	.	.	.	.	.
4r	.	.	8c/	8e-/|	.	4r	.	4r	.	4r	.	4r	.
.	.	.	8c/J	8e-/J|	.	.	.	.	.	.	.	.	.
*	*	*	*Xtremolo	*	*	*	*	*	*	*	*	*	*
=5	=5	=5	=5	=5	=5	=5	=5	=5	=5	=5	=5	=5	=5
4AA-/	3 5	.	8c/L	8e-/L	.	4AA-/	lu-	4E-/	lu-	4e-\	lu-	4cc\	le-
.	.	.	8c/	8e-/	.	.	.	.	.	.	.	.	.
4BB-/	8 3	.	8B-/	8d-/	.	4BB-/	-ce-	4E-/	-ce-	4d-\	-ce-	4b-\	-ce-
.	.	.	8B-/J	8d-/	.	.	.	.	.	.	.	.	.
4C/	6 8	.	8A-/L	8c/	.	4C/	-at	4E-/	-at	4c\	-at	4a-\	-at
.	.	.	8A-/J	8c/J	.	.	.	.	.	.	.	.	.
=6	=6	=6	=6	=6	=6	=6	=6	=6	=6	=6	=6	=6	=6
4D-/	4 6	.	4G/	4B-/	.	4D-/	e-	4E-/	e-	4B-/	e-	4g\	e-
4C/	6 8	.	4A-/	4c/	.	4C/	-is	4E-/	-is	4c/	-is	4a-\	-is
4r	.	.	4r	4r	.	4r	.	4r	.	4r	.	4r	.
!	!	!	!	!	!	!	!	!	!	!LO:LB:g=original	!	!	!
=7	=7	=7	=7	=7	=7	=7	=7	=7	=7	=7	=7	=7	=7
4BB-/	3 5	.	8d-/L	8f/L	.	4BB-/	lu-	4F/	lu-	4f\	lu-	4ddn\	lu-
.	.	.	8d-/	8f/	.	.	.	.	.	.	.	.	.
4C/	8 3	.	8c/	8e-/	.	4C/	-ce-	4F/	-ce-	4e-\	-ce-	4cc\	-ce-
.	.	.	8c/	8e-/	.	.	.	.	.	.	.	.	.
4D-/	6 8	.	8B-/	8dn/	.	4D-/	-at	4F/	-at	4dn\	-at	4b-\	-at
.	.	.	8B-/J	8d/J	.	.	.	.	.	.	.	.	.
=8	=8	=8	=8	=8	=8	=8	=8	=8	=8	=8	=8	=8	=8
4E-/	n4 6	.	4An/	4d-/	.	4E-/	e-	4F/	e-	4c\	e-	4an\	e-
4D-/	6 8	.	4B-/	4dn/	.	4D-/	-is	4F/	-is	4d-\	-is	4b-\	-is
4r	.	.	4r	4r	.	4r	.	4r	.	4r	.	4r	.
!	!	!	!	!	!	!	!	!	!	!	!	!LO:LB:g=original	!
=9	=9	=9	=9	=9	=9	=9	=9	=9	=9	=9	=9	=9	=9
4GG/	9 5	.	8r	(8B-/L	.	4GG/	lu-	4B-\	lu-	4.e-\	lu-	4dd-\	lu-
.	.	.	8B-/	8e-/)	.	.	.	.	.	.	.	.	.
*	*	*	*tremolo	*	*	*	*	*	*	*	*	*	*
4r	.	.	8B-/L	8e-/|	.	4GG/	-ce-	4B-\	-ce-	.	.	4dd-\	-ce-
.	.	.	8B-/	8e-/|	.	.	.	.	.	8e-\	-ce-	.	.
4r	.	.	8B-/	8e-/|	.	4GG/	-at	4B-\	-at	4e-\	-at	4dd-\	-at
.	.	.	8B-/J	8e-/J|	.	.	.	.	.	.	.	.	.
!	!	!	!	!	!	!LO:LB:g=original	!	!LO:LB:g=original	!	!	!	!	!
=10	=10	=10	=10	=10	=10	=10	=10	=10	=10	=10	=10	=10	=10
4AA-/	3	.	8r	(8c/L	.	4AA-/	e-	4A-/	e-	4e-\	e-	4cc\	e-
.	.	.	8c/	8e-/)	.	.	.	.	.	.	.	.	.
4r	.	.	8c/L	8e-/|	.	4AA-/	-is	4A-/	-is	4e-\	-is	4cc\	-is
.	.	.	8c/	8e-/|	.	.	.	.	.	.	.	.	.
4r	.	.	8c/	8e-/|	.	4r	.	4r	.	4r	.	4r	.
.	.	.	8c/J	8e-/J|	.	.	.	.	.	.	.	.	.
!LO:LB:g=original	!	!	!	!LO:LB:g=original	!	!	!	!	!	!	!	!	!
=11	=11	=11	=11	=11	=11	=11	=11	=11	=11	=11	=11	=11	=11
4G\	4 2	.	8r	(8A-/L	.	4G-X\	lu-	4A-/	lu-	4e-\	lu-	4cc\	lu-
.	.	.	8A-/	8c/)	.	.	.	.	.	.	.	.	.
4r	.	.	8A-/L	8c/|	.	4G-\	-ce-	4A-/	-ce-	4e-\	-ce-	4cc\	-ce-
.	.	.	8A-/	8c/|	.	.	.	.	.	.	.	.	.
4r	.	.	8A-/	8c/|	.	4G-\	-at	4A-/	-at	4e-\	-at	4cc\	-at
.	.	.	8A-/J	8c/J|	.	.	.	.	.	.	.	.	.
=12	=12	=12	=12	=12	=12	=12	=12	=12	=12	=12	=12	=12	=12
4F\	6	.	8r	(8A-/L	.	4F\	e-	4A-/	e-	4f\	e-	4dd-X\	e-
.	.	.	8A-/	8d-X/)	.	.	.	.	.	.	.	.	.
4r	.	.	8A-/L	8d-/|	.	4F\	-is	4A-/	-is	4f\	-is	4dd-\	-is
.	.	.	8A-/	8d-/|	.	.	.	.	.	.	.	.	.
4r	.	.	8A-/	8d-/|	.	4r	.	4r	.	4r	.	4r	.
.	.	.	8A-/J	8d-/J|	.	.	.	.	.	.	.	.	.
=13	=13	=13	=13	=13	=13	=13	=13	=13	=13	=13	=13	=13	=13
4A-\	n4 2	.	8r	8r	.	4A-X\	lu-	4B-\	lu-	4f\	lu-	4ddn\	lu-
.	.	.	8B-/	8dn/	.	.	.	.	.	.	.	.	.
*	*	*	*	*tremolo	*	*	*	*	*	*	*	*	*
4r	.	.	8B-/L	8d/L	.	4A-\	-ce-	4B-\	-ce-	4f\	-ce-	4dd\	-ce-
.	.	.	8B-/	8d/	.	.	.	.	.	.	.	.	.
4r	.	.	8B-/	8d/	.	4A-\	-at	4B-\	-at	4f\	-at	4dd\	-at
.	.	.	8B-/J	8d/J	.	.	.	.	.	.	.	.	.
=14	=14	=14	=14	=14	=14	=14	=14	=14	=14	=14	=14	=14	=14
!	!	!	!LO:TX:a:t=P:problem=takt zapisany repetycją	!	!	!	!	!	!	!	!	!	!
4G\	6	.	8ryy	8r	.	4Gn\	e-	4B-\	e-	4g\	e-	4ee-\	e-
.	.	.	8B-/yy	8e-/	.	.	.	.	.	.	.	.	.
!	!	!	!	!LO:TX:a:t=vi	!	!	!	!	!	!	!	!	!
4r	.	.	8B-/yyL	8e-/L	.	4G\	-is	4B-\	-is	4g\	-is	4ee-\	-is
.	.	.	8B-/yy	8e-/	.	.	.	.	.	.	.	.	.
4r	.	.	8B-/yy	8e-/	.	4r	.	4r	.	4r	.	4r	.
.	.	.	8B-/yyJ	8e-/J	.	.	.	.	.	.	.	.	.
!	!	!	!LO:LB:g=original	!	!	!	!	!	!	!	!	!	!
=15	=15	=15	=15	=15	=15	=15	=15	=15	=15	=15	=15	=15	=15
!	!	!	!	!LO:TX:a:t=di	!	!	!	!	!	!	!	!	!
4D-X/	4 2	.	8r	8r	.	2D-/	Lux	2B-\	Lux	2e-\	Lux	2g\	Lux
.	.	.	8G/	8B-/	.	.	.	.	.	.	.	.	.
4r	.	.	8G/L	8B-/L	.	.	.	.	.	.	.	.	.
.	.	.	8G/	8B-/	.	.	.	.	.	.	.	.	.
!	!	!	!	!LO:TX:a:t=re	!	!	!	!	!	!	!	!	!
4r	.	.	8G/	8B-/	.	4D-/	ae-	4B-\	ae-	4e-\	ae-	4g\	ae-
.	.	.	8G/J	8B-/J	.	.	.	.	.	.	.	.	.
!	!	!	!	!	!	!	!	!	!	!LO:LB:g=original	!	!	!
=16	=16	=16	=16	=16	=16	=16	=16	=16	=16	=16	=16	=16	=16
4C/	-	.	8r	8r	.	2C/	-ter-	2A-/	-ter-	2e-\	-ter-	2a-\	-ter-
.	.	.	8A-/	8c/	.	.	.	.	.	.	.	.	.
4r	.	.	8A-/L	8c/L	.	.	.	.	.	.	.	.	.
.	.	.	8A-/	8c/	.	.	.	.	.	.	.	.	.
4r	.	.	8A-/	8c/	.	4C/	-na	4A-/	-na	4e-\	-na	4a-\	-na
.	.	.	8A-/J	8c/J	.	.	.	.	.	.	.	.	.
!	!	!	!	!	!	!	!	!	!	!	!	!LO:LB:g=original	!
=17	=17	=17	=17	=17	=17	=17	=17	=17	=17	=17	=17	=17	=17
4D-\	6	.	8r	8r	.	4.D-/	lu-	4.F/	lu-	4.f\	lu-	4.b-\	lu-
.	.	.	8B-/	8f 8d-/	.	.	.	.	.	.	.	.	.
4r	.	.	8B-/L	8f 8d-/L	.	.	.	.	.	.	.	.	.
.	.	.	8B-/	8f 8d-/	.	8D-/	-ce-	8F/	-ce-	8f\	-ce-	8b-\	-ce-
4r	.	.	8B-/	8f 8d-/	.	4D-/	-at	4F/	-at	4f\	-at	4b-\	-at
.	.	.	8B-/J	8f 8d-/J	.	.	.	.	.	.	.	.	.
*	*	*	*Xtremolo	*	*	*	*	*	*	*	*	*	*
=18	=18	=18	=18	=18	=18	=18	=18	=18	=18	=18	=18	=18	=18
*	*	*	*	*	*	*2\right	*	*	*	*	*	*	*
4E-\	6 4	.	8r	8r	.	2.E-\	e-	2.E-/	e-	(2c\	e-	2a-\	e-
.	.	.	8A-/L	8c/L	.	.	.	.	.	.	.	.	.
4r	.	.	8A-/	8c/	.	.	.	.	.	.	.	.	.
.	.	.	8A-/J	8c/	.	.	.	.	.	.	.	.	.
4EE-/	5 3	.	8G/L	8d-X/	.	.	.	.	.	4d-\)	.	4g\	.
.	.	.	8G/J	8d-/J	.	.	.	.	.	.	.	.	.
=19	=19	=19	=19	=19	=19	=19	=19	=19	=19	=19	=19	=19	=19
4AA-/	8 3	.	4A-/	4c/	.	4AA-/	-is	4E-/	-is	4c\	-is	4a-\	-is
4r	.	.	4r	4r	.	4r	.	4r	.	4r	.	4r	.
4r	.	.	4r	4r	.	4r	.	4r	.	4r	.	4r	.
!	!	!	!	!	!	!LO:LB:g=original	!	!LO:LB:g=original	!	!	!	!	!
=20	=20	=20	=20	=20	=20	=20	=20	=20	=20	=20	=20	=20	=20
4GG/	9 5	.	8r	8r	.	2GG/	lu-	2D-/	lu-	2B-/	lu-	2e-/	lu-
.	.	.	8B-/	8d-X/	.	.	.	.	.	.	.	.	.
*	*	*	*tremolo	*	*	*	*	*	*	*	*	*	*
4r	.	.	8B-/L	8d-/L	.	.	.	.	.	.	.	.	.
.	.	.	8B-/	8d-/	.	.	.	.	.	.	.	.	.
4r	.	.	8B-/	8d-/	.	4GG/	-ce-	4D-/	-ce-	4B-/	-ce-	(8f/L	-ce-
.	.	.	8B-/J	8d-/J	.	.	.	.	.	.	.	8e-/J)	.
=21	=21	=21	=21	=21	=21	=21	=21	=21	=21	=21	=21	=21	=21
4AA-/	.	.	4A-/	4c/	.	4AA-/	-at	4C/	-at	2A-/	-at	4e-/	-at
4r	.	.	4r	4r	.	4r	.	4r	.	.	.	4r	.
4r	.	.	4r	4r	.	4r	.	4r	.	4r	.	4r	.
=22	=22	=22	=22	=22	=22	=22	=22	=22	=22	=22	=22	=22	=22
4GG/	9 5	.	8r	8r	.	2GG/	lu-	2D-/	lu-	2B-/	lu-	2e-/	lu-
.	.	.	8B-/	8d-X/	.	.	.	.	.	.	.	.	.
4r	.	.	8B-/L	8d-/L	.	.	.	.	.	.	.	.	.
.	.	.	8B-/	8d-/	.	.	.	.	.	.	.	.	.
4r	.	.	8B-/	8d-/	.	4GG/	-ce-	4D-/	-ce-	4B-/	-ce-	(8f/L	-ce-
.	.	.	8B-/J	8d-/J	.	.	.	.	.	.	.	8e-/J)	.
*	*	*	*Xtremolo	*Xtremolo	*	*	*	*	*	*	*	*	*
=23	=23	=23	=23	=23	=23	=23	=23	=23	=23	=23	=23	=23	=23
4AA-/	.	.	4A-/	4c/	.	4AA-/	-at	4C/	-at	4A-/	-at	4e-/	-at
4r	.	.	4r	4r	.	4r	.	4r	.	4r	.	4r	.
4r	.	.	4r	4r	.	4r	.	4r	.	4r	.	4r	.
=24	=24	=24	=24	=24	=24	=24	=24	=24	=24	=24	=24	=24	=24
!LO:TX:a:t=2.	!	!	!LO:TX:a:t=2	!LO:TX:a:t=2	!	!	!	!	!	!	!	!	!
!LO:N:vis=0	!	!	!LO:N:vis=0	!LO:N:vis=0	!	!	!	!	!	!	!	!	!
1.r	.	.	1.r	1.r	.	2.E-\	e-	2.E-/	e-	2.B-/	e-	2.g\	e-
=25	=25	=25	=25	=25	=25	=25	=25	=25	=25	=25	=25	=25	=25
!	!	!	!	!	!	!LO:TX:a:t=25	!	!	!	!	!	!	!
!LO:TX:b:i:t=Requiem Da Capo.	!	!	!LO:TX:b:i:t=Requiem DaCapo.	!LO:TX:b:i:t=Requiem Da Capo_	!	!LO:TX:b:i:t=Requiem Da Capo_	!	!LO:TX:b:i:t=Requiem Da Capo.	!	!LO:TX:b:i:t=Da Capo Requiem	!	!LO:TX:b:i:t=Requiem\n Da Capo.	!
.	.	.	.	.	.	2.AA-/	-is	2.E-/	-is	2.c/	-is	2.a-\	-is
==	==	==	==	==	==	==	==	==	==	==	==	==	==
*-	*-	*-	*-	*-	*-	*-	*-	*-	*-	*-	*-	*-	*-
!!!system-decoration: [g1][g2]s7
!!!ENC: Zofia Niedbalska
!!!END: 2020-12-10
!!!ENC: Berenika Jozajtis
!!!END: 2020-06-03
!!!RDF**kern: | = vertical stroke
